icons/tools-line.svg

<svg viewBox="0 0 24 24" fill="currentColor" xmlns="http://www.w3.org/2000/svg"><path d="M5.32943 3.27158C6.56252 2.8332 7.9923 3.10749 8.97927 4.09446C10.1002 5.21537 10.3019 6.90741 9.5843 8.23385L20.293 18.9437L18.8788 20.3579L8.16982 9.64875C6.84325 10.3669 5.15069 10.1654 4.02952 9.04421C3.04227 8.05696 2.7681 6.62665 3.20701 5.39332L5.44373 7.63C6.02952 8.21578 6.97927 8.21578 7.56505 7.63C8.15084 7.04421 8.15084 6.09446 7.56505 5.50868L5.32943 3.27158ZM15.6968 5.15512L18.8788 3.38736L20.293 4.80157L18.5252 7.98355L16.7574 8.3371L14.6361 10.4584L13.2219 9.04421L15.3432 6.92289L15.6968 5.15512ZM8.97927 13.2868L10.3935 14.7011L5.09018 20.0044C4.69966 20.3949 4.06649 20.3949 3.67597 20.0044C3.31334 19.6417 3.28744 19.0699 3.59826 18.6774L3.67597 18.5902L8.97927 13.2868Z"/></svg>

<svg xmlns="http://www.w3.org/2000/svg" viewBox="0 0 24 24">
    <g>
        <path fill="none" d="M0 0h24v24H0z"/>
        <path d="M5.33 3.271a3.5 3.5 0 0 1 4.254 4.963l10.709 10.71-1.414 1.414-10.71-10.71a3.502 3.502 0 0 1-4.962-4.255L5.444 7.63a1.5 1.5 0 1 0 2.121-2.121L5.329 3.27zm10.367 1.884l3.182-1.768 1.414 1.414-1.768 3.182-1.768.354-2.12 2.121-1.415-1.414 2.121-2.121.354-1.768zm-6.718 8.132l1.414 1.414-5.303 5.303a1 1 0 0 1-1.492-1.327l.078-.087 5.303-5.303z"/>
    </g>
</svg>
